!!!COM: Palestrina, Giovanni Perluigi da
!!!OPR: Missa Ave regina coelorum
!!!OMD: Credo
!!!OTL: First Section
**kern	**kern	**kern	**kern
*Ibass	*Itenor	*Icalto	*Icant
!Bassus	!Tenor	!Altus	!Cantus
*clefF4	*clefGv2	*clefG2	*clefG2
*k[]	*k[]	*k[]	*k[]
*C:ion	*C:ion	*C:ion	*C:ion
*M4/2	*M4/2	*M4/2	*M4/2
=1	=1	=1	=1
0r	1r	1f	0r
.	1c	1e	.
=2	=2	=2	=2
0r	1B	1d	0r
.	1A	2e	.
.	.	2c	.
=3	=3	=3	=3
0r	2B	2.d	0r
.	2G	.	.
.	.	4e	.
.	2.A	4f	.
.	.	4g	.
.	.	[2a	.
.	4B	.	.
=4	=4	=4	=4
0r	4c	2a]	1cc
.	4d	.	.
.	2.e	2.g	.
.	.	.	1b
.	4d	4f	.
.	2B	2d	.
=5	=5	=5	=5
0r	2c	2e	1a
.	2d	2f#	.
.	2G	1g	2b
.	[2g	.	2g
=6	=6	=6	=6
1r	4g]	1d	2.a
.	8f#	.	.
.	8e	.	.
.	2f#	.	.
.	.	.	4b
1c	2g	2.e	4cc
.	.	.	4dd
.	2c	.	[2ee
.	.	4f	.
=7	=7	=7	=7
1B	1d	1g	4ee]
.	.	.	4dd
.	.	.	1dd
1A	1e	1a	.
.	.	.	2cc#
=8	=8	=8	=8
2B	2.g	1d	2dd
2G	.	.	2b
.	4f	.	.
2.A	4e	2.c	[1cc
.	4d	.	.
.	4c	.	.
4B	4B	4d	.
=9	=9	=9	=9
2c	2A	4e	2cc]
.	.	4f	.
2.d	2G	2g	2b
.	2A	2e	1a
4c	.	.	.
[2c	2F	2f	.
=10	=10	=10	=10
2c]	1G	1d	0g
2B	.	.	.
1c	2r	2e	.
.	2c	2g	.
=11	=11	=11	=11
1r	2f	2a	2r
.	2f	2a	2cc
1G	1d	1b	2dd
.	.	.	2dd
=12	=12	=12	=12
2c	1c	2cc	1ee
2c	.	2g	.
1A	2r	2a	2ee
.	2c	2a	2ff
=13	=13	=13	=13
1G	2d	1b	1gg
.	2d	.	.
2.E	1e	2b	1g
.	.	2cc	.
4F	.	.	.
=14	=14	=14	=14
2G	2d	2b	0r
2A	2.f	2.a	.
1E	.	.	.
.	4e	4g	.
.	[2e	2g	.
=15	=15	=15	=15
1F	2e]	1a	1r
.	2d	.	.
2C	1e	[1g	1cc
[2c	.	.	.
=16	=16	=16	=16
2c]	1d	1g]	1dd
2B	.	.	.
1c	2c	2r	2.ee
.	2e	2g	.
.	.	.	4ee
=17	=17	=17	=17
0r	2f	2a	1dd
.	2.g	2.b	.
.	.	.	2ee
.	4g	4b	.
.	2f	2a	[2ff
=18	=18	=18	=18
0r	2g	2b	4ff]
.	.	.	4ee
.	2a	2cc	1ee
.	1f	1a	.
.	.	.	2dd
=19	=19	=19	=19
1c	0e	1g	1ee
1A	.	1a	2r
.	.	.	2cc
=20	=20	=20	=20
1G	1r	2.b	1dd
.	.	4b	.
2C	1c	2cc	2.ee
[2c	.	2g	.
.	.	.	4ee
=21	=21	=21	=21
2c]	1d	1g	2dd
2B	.	.	2dd
2c	2.e	2r	2g
2c	.	[2g	2gg
.	4e	.	.
=22	=22	=22	=22
2B	2d	2g]	4gg
.	.	.	4ff
4c	2e	2g	4ee
4B	.	.	4dd
4A	[1f	[1a	2cc
4G	.	.	.
4F	.	.	2cc
4E	.	.	.
=23	=23	=23	=23
2D	2f]	2a]	2dd
2E	2e	2g	1cc
2F	1d	2a	.
2G	.	2g	2b
=24	=24	=24	=24
1C	1c	2g	2.cc
.	.	1cc	.
.	.	.	4b
[1F	1r	.	2a
.	.	2b	2g
=25	=25	=25	=25
2F]	1.c	0a	1f
2G	.	.	.
2A	.	.	1e
2B	2d	.	.
=26	=26	=26	=26
2.c	2e	1g	0r
.	2e	.	.
4c	.	.	.
1F	2.f	2.a	.
.	4f	4a	.
=27	=27	=27	=27
1c	2e	1g	1r
.	1g	.	.
2B	.	1r	2r
[2A	2f	.	[2cc
=28	=28	=28	=28
4A]	2e	0r	2cc]
4G	.	.	.
2F	2.d	.	2dd
2.E	.	.	2ee
.	4c	.	.
.	[2c	.	2ee
8D	.	.	.
8C	.	.	.
=29	=29	=29	=29
1D	2c]	1r	2.ff
.	2B	.	.
.	.	.	4ff
1C	1c	2r	2ee
.	.	2cc	[2gg
=30	=30	=30	=30
1r	0r	2b	2gg]
.	.	2.a	2ff
1c	.	.	2.ee
.	.	4g	.
.	.	2e	.
.	.	.	4dd
=31	=31	=31	=31
2A	0r	2f	4cc
.	.	.	4a
2B	.	2d	2.dd
1A	.	2e	.
.	.	.	4cc
.	.	4d	[2cc
.	.	4c	.
=32	=32	=32	=32
1G	1g	1d	2cc]
.	.	.	2b
2.A	2e	1c	[1cc
.	2f	.	.
4B	.	.	.
=33	=33	=33	=33
4c	1e	0r	1cc]
4d	.	.	.
1c	.	.	.
.	1d	.	1r
2B	.	.	.
=34	=34	=34	=34
2c	2.e	1g	1r
2c	.	.	.
.	4f	.	.
4c	2g	2e	1cc
4B	.	.	.
4A	[2a	2c	.
4G	.	.	.
=35	=35	=35	=35
2F	2a]	1d	2a
2G	1g	.	2b
1D	.	1d	1a
.	2f#	.	.
=36	=36	=36	=36
1r	4g	1e	1g
.	4f	.	.
.	4e	.	.
.	4d	.	.
2.F	2c	2f	2.a
.	[2f	[2a	.
4G	.	.	4b
=37	=37	=37	=37
2A	2f]	2a]	2cc
2B-	2d	2.g	1dd
2A	2e	.	.
.	.	4f	.
2A	4d	4f	[2cc
.	4c	4e	.
=38	=38	=38	=38
0G	1.d	1.g	2cc]
.	.	.	4b
.	.	.	4a
.	.	.	2b
.	2d	2g	2b
=39	=39	=39	=39
2r	1c	0e	0cc
2.c	.	.	.
.	2r	.	.
4B	.	.	.
4A	[2c	.	.
4G	.	.	.
=40	=40	=40	=40
2A	2c]	0r	0r
2B-	2d	.	.
2G	2e	.	.
4F	2f	.	.
4G	.	.	.
=41	=41	=41	=41
4A	2.e	1r	0r
4B	.	.	.
1c	.	.	.
.	8d	.	.
.	8c	.	.
.	1d	2r	.
2B	.	[2g	.
=42	=42	=42	=42
1c	1e	2g]	1cc
.	.	2a	.
1r	2r	2b	2dd
.	2c	2cc	2ee
=43	=43	=43	=43
0r	2d	2.b	2ff
.	2e	.	2.ee
.	.	8a	.
.	.	8g	.
.	2f	2a	.
.	.	.	4dd
.	2g	2b	2dd
=44	=44	=44	=44
2r	1c	1cc	1ee
1c	.	.	.
.	1g	1r	1r
2B	.	.	.
=45	=45	=45	=45
1A	2f	0r	0r
.	1e	.	.
2G	.	.	.
2F	2d	.	.
=46	=46	=46	=46
2.A	2c	1r	0r
.	1e	.	.
4G	.	.	.
2F	.	2r	.
2F	2d	2a	.
=47	=47	=47	=47
1E	1e	2cc	2r
.	.	2b	2gg
1r	1r	2.a	2ff
.	.	.	2ee
.	.	4g	.
=48	=48	=48	=48
2r	0r	2f	2dd
2c	.	2e	1ee
2A	.	1f	.
2B	.	.	2dd
=49	=49	=49	=49
2.c	2r	1e	1ee
.	2g	.	.
4B	.	.	.
2.A	2f	1r	1r
.	2e	.	.
4G	.	.	.
=50	=50	=50	=50
2F	2d	2r	0r
2E	1e	2cc	.
2F	.	2a	.
2G	2d	2b	.
=51	=51	=51	=51
1C	1e	2.cc	2r
.	.	.	2gg
.	.	4b	.
1r	1r	2.a	2ff
.	.	.	2ee
.	.	4g	.
=52	=52	=52	=52
0r	0r	2f	2dd
.	.	2e	1ee
.	.	2f	.
.	.	2g	2dd
=53	=53	=53	=53
2r	1e	1c	1ee
1c	.	.	.
.	1d	2r	1r
2B	.	2g	.
=54	=54	=54	=54
2c	1e	2g	2r
2A	.	1a	1cc
1d	1f	.	.
.	.	2f	2b
=55	=55	=55	=55
1c	1e	2g	2cc
.	.	1cc	2g
2F	1d	.	2a
2G	.	2b	2b
=56	=56	=56	=56
2.C	0e	2a	2cc
.	.	4g	2.ee
4D	.	4f	.
2.E	.	1g	.
.	.	.	4dd
.	.	.	[2cc
4F	.	.	.
=57	=57	=57	=57
0G	0d	1g	2cc]
.	.	.	4b
.	.	.	4a
.	.	2r	1b
.	.	[2g	.
=58	=58	=58	=58
1C	1c	2g]	[0cc
.	.	2g	.
2r	1r	2f	.
[2c	.	2g	.
=59	=59	=59	=59
2c]	1.g	2.e	1cc]
2c	.	.	.
.	.	8d	.
.	.	8c	.
2B	.	2d	1r
2c	2g	2e	.
=60	=60	=60	=60
2A	2f	2c	0r
2B	2g	2G	.
[1c	2e	1A	.
.	2f	.	.
=61	=61	=61	=61
2c]	1.g	1G	0r
2B	.	.	.
1A	.	2c	.
.	2f	2c	.
=62	=62	=62	=62
1G	2e	1g	0r
.	2d	.	.
2.A	2c	1e	.
.	[2e	.	.
4G	.	.	.
=63	=63	=63	=63
2F	4e]	2r	0r
.	4d	.	.
2G	1d	1g	.
1E	.	.	.
.	2c#	2g	.
=64	=64	=64	=64
1D	1d	1.f#	2r
.	.	.	1dd
1r	2r	.	.
.	2g	2g	2dd
=65	=65	=65	=65
0r	2g	2e	2cc
.	2f#	2d	2dd
.	2g	4e	2b
.	.	4d	.
.	2e	4c	[2cc
.	.	4d	.
=66	=66	=66	=66
0r	2c	4e	2cc]
.	.	4f#	.
.	2G	2.g	2b
.	[1d	.	1a
.	.	8f#	.
.	.	8e	.
.	.	2f#	.
=67	=67	=67	=67
1G	1d]	2.g	1b
.	.	4f	.
2.A	2r	2e	2r
.	2c	2a	2cc
4B	.	.	.
=68	=68	=68	=68
2c	2e	2g	2cc
2A	2f	2c	2cc
1G	1g	1d	1b
=69	=69	=69	=69
2.A	2f	1c	1.a
.	1e	.	.
4G	.	.	.
2F	.	2c	.
2F	2d	2A	2a
=70	=70	=70	=70
0C	2.e	2r	1g
.	.	2c	.
.	4f	.	.
.	1g	2.e	2r
.	.	.	2cc
.	.	4f	.
=71	=71	=71	=71
0r	0r	2g	2ee
.	.	2a	2ff
.	.	4b	1gg
.	.	8a	.
.	.	8b	.
.	.	2cc	.
=72	=72	=72	=72
2r	0r	2a	2ff
2G	.	2g	1ee
2A	.	1f	.
2B	.	.	2dd
=73	=73	=73	=73
2.c	2r	1e	1.ee
.	2c	.	.
4B	.	.	.
1A	2e	1r	.
.	2f	.	4dd
.	.	.	4cc
=74	=74	=74	=74
2G	4g	2r	2b
.	4f	.	.
2.A	4e	2c	2cc
.	4d	.	.
.	2c	2e	1a
4G	.	.	.
2F	[2d	2f	.
=75	=75	=75	=75
2E	4d]	1g	0r
.	4c	.	.
2C	1c	.	.
1D	.	1f	.
.	2B	.	.
=76	=76	=76	=76
1C	1c	2e	2r
.	.	2g	2cc
1r	2r	2cc	2ee
.	2d	2a	2ff
=77	=77	=77	=77
1G	2d	1b	4gg
.	.	.	4ff
.	2e	.	4ee
.	.	.	4dd
2A	1f	2a	2cc
2B	.	2d	[2dd
=78	=78	=78	=78
1c	2.e	1g	4dd]
.	.	.	4cc
.	.	.	1cc
.	8d	.	.
.	8c	.	.
1G	1d	1g	.
.	.	.	2b
=79	=79	=79	=79
1C	1e	1g	1cc
1r	1r	1r	1r
=80	=80	=80	=80
0F	0f	0a	0cc
=81	=81	=81	=81
1G	1d	1g	1b
1D	1d	1f#	1a
=82	=82	=82	=82
1G	1d	2g	1b
.	.	2.g	.
1C	1e	.	1g
.	.	4f	.
.	.	4e	.
.	.	4d	.
=83	=83	=83	=83
2.F	1.f	1c	1.a
4E	.	.	.
1D	.	1d	.
.	4e	.	2b
.	4d	.	.
=84	=84	=84	=84
1C	2.e	[0g	1cc
.	4d	.	.
2r	1c	.	2r
[2c	.	.	2cc
=85	=85	=85	=85
4c]	1G	1g]	1dd
8B	.	.	.
8A	.	.	.
2B	.	.	.
1c	[1g	2r	[1ee
.	.	[2cc	.
=86	=86	=86	=86
1G	2g]	4cc]	2ee]
.	.	8b	.
.	.	8a	.
.	2g	2b	2dd
4c	2g	2cc	1ee
4B	.	.	.
4A	[2a	2cc	.
4G	.	.	.
=87	=87	=87	=87
4F	4a]	1a	1.ff
4E	4g	.	.
1D	4f	.	.
.	4e	.	.
.	2d	[1a	.
2C#	2e	.	2ee
=88	=88	=88	=88
1D	1f	1a]	1dd
1A	1e	1a	1cc#
=89	=89	=89	=89
2r	2r	2r	2r
1A	1e	1a	1cc#
2A	2e	2a	2cc#
=90	=90	=90	=90
1F	1A	1a	1dd
1E	1B	1g#	1ee
=91	=91	=91	=91
2.D	1d	1.a	1.ff
4E	.	.	.
2F	2c	.	.
2F	[2c	2a	2ff
=92	=92	=92	=92
1C	4c]	2g	1ee
.	4d	.	.
.	4e	1cc	.
.	4c	.	.
1G	[1d	.	2r
.	.	[2b	[2gg
=93	=93	=93	=93
2.D	1d]	2b]	2gg]
.	.	2.a	1ff
4E	.	.	.
2F	2r	.	.
.	.	4b	.
2C	[2g	2cc	[2ee
=94	=94	=94	=94
2.D	2g]	2b	2ee]
.	1f	4a	1dd
4E	.	4g	.
4F	.	1a	.
4G	.	.	.
4A	[2e	.	[2cc
4B	.	.	.
=95	=95	=95	=95
2c	2e]	1g	4cc]
.	.	.	8b
.	.	.	8a
2G	1d	.	2b
1A	.	2.e	2.cc
.	[2c	.	.
.	.	4f	4dd
=96	=96	=96	=96
1G	4c]	[0g	2ee
.	8B	.	.
.	8A	.	.
.	2B	.	2.dd
2.E	1e	.	.
.	.	.	4cc
.	.	.	[2cc
4F	.	.	.
=97	=97	=97	=97
[0G	[0d	1g_	2cc]
.	.	.	4b
.	.	.	4a
.	.	1g_	2.b
.	.	.	4cc
=98	=98	=98	=98
0G]	0d]	0g]	0b
*-	*-	*-	*-
!!!CDT: 1525/^1526/-1594/2/2
!!!OCY: Italia
!!!AGN: Mass (Paraphrase)
!!!AST: renaissance, vocal
!!!ASW: Antiphon
!!!PWK: Masses, Book 9
!!!RNB: Cadence finals: G
!!!YOR: Le Opere Complete, v. 25, p. 1
!!!YOO: Rome, Italy: Fratelli Scalera
!!!END: 1992//
!!!EED: John Miller
!!!YEC: Copyright 2000, John Miller
!!!YEN: United States of America
!!!YEM: Rights to all derivative electronic formats reserved.
!!!YEM: Refer to licensing agreement for further details.
!!!YEM: This file must be accompanied by the licensing agreement.
!!!YEM: A copy of the licensing agreement may be found at http://www.music-cog.ohio-state.edu/HumdrumDatabases/Palestrina/license.txt
!!!EMD: converted to Humdrum by Bret Aarden
